flaticon/casino-gambling/spades.svg

<svg xmlns="http://www.w3.org/2000/svg" width="32" height="32" viewBox="0 0 24 24">
    <path d="M 20.679688 8.546875 L 13.035156 0.421875 C 12.433594 -0.140625 11.554688 -0.140625 10.953125 0.421875 L 3.1875 8.507812 C 1.023438 10.507812 0.582031 13.550781 2.105469 16.3125 C 3.144531 18.234375 5.109375 19.515625 7.269531 19.597656 C 8.628906 19.675781 9.230469 19.234375 10.03125 18.515625 L 10.03125 19.675781 C 10.03125 20.316406 9.832031 20.996094 9.511719 21.558594 L 8.789062 22.800781 C 8.628906 23.039062 8.628906 23.359375 8.789062 23.601562 C 8.910156 23.839844 9.191406 24 9.472656 24 L 14.515625 24 C 14.796875 24 15.035156 23.839844 15.195312 23.601562 C 15.355469 23.359375 15.355469 23.039062 15.195312 22.800781 L 14.476562 21.597656 C 14.113281 21.039062 13.953125 20.398438 13.953125 19.714844 L 13.953125 18.554688 C 14.675781 19.234375 15.234375 19.675781 16.636719 19.636719 C 18.757812 19.554688 20.71875 18.394531 21.800781 16.59375 C 23.804688 13.269531 22.441406 10.1875 20.679688 8.546875 Z M 21.121094 16.195312 C 20.199219 17.753906 18.480469 18.753906 16.636719 18.835938 C 15.515625 18.914062 15.15625 18.554688 14.433594 17.875 L 14.394531 17.835938 C 14.195312 17.632812 13.914062 17.554688 13.632812 17.675781 C 13.355469 17.792969 13.195312 18.035156 13.195312 18.316406 L 13.195312 19.675781 C 13.195312 20.476562 13.394531 21.277344 13.792969 21.957031 L 14.515625 23.199219 L 9.472656 23.199219 L 10.191406 21.917969 C 10.59375 21.238281 10.792969 20.4375 10.792969 19.636719 L 10.792969 18.273438 C 10.792969 17.996094 10.632812 17.753906 10.351562 17.632812 C 10.273438 17.59375 10.152344 17.59375 10.070312 17.59375 C 9.910156 17.59375 9.710938 17.675781 9.550781 17.792969 C 8.789062 18.515625 8.390625 18.835938 7.230469 18.796875 C 5.386719 18.714844 3.667969 17.632812 2.746094 15.914062 C 1.464844 13.511719 1.824219 10.828125 3.746094 9.066406 L 11.511719 0.980469 C 11.792969 0.699219 12.234375 0.699219 12.472656 0.941406 L 20.121094 9.148438 C 21.679688 10.589844 22.882812 13.3125 21.121094 16.195312 Z M 21.121094 16.195312"/>
    <path d="M 20.761719 11.429688 C 20.679688 11.230469 20.441406 11.148438 20.238281 11.230469 C 20.039062 11.308594 19.960938 11.550781 20.039062 11.75 C 20.558594 12.949219 20.441406 14.152344 19.757812 15.3125 C 19.398438 15.953125 18.800781 16.515625 18.078125 16.835938 C 17.597656 17.035156 17.117188 17.15625 16.597656 17.195312 C 16.355469 17.195312 16.195312 17.355469 16.195312 17.59375 C 16.195312 17.835938 16.398438 17.996094 16.597656 17.996094 C 17.238281 17.953125 17.839844 17.835938 18.398438 17.554688 C 19.238281 17.152344 19.960938 16.515625 20.441406 15.714844 C 21.28125 14.351562 21.359375 12.871094 20.761719 11.429688 Z M 20.761719 11.429688"/>
</svg>

<svg xmlns="http://www.w3.org/2000/svg" width="32" height="32" viewBox="0 0 24 24">
    <path d="M20.68 8.547L13.035.422a1.495 1.495 0 0 0-2.082 0L3.188 8.508c-2.165 2-2.606 5.043-1.083 7.805 1.04 1.921 3.004 3.203 5.165 3.285 1.359.078 1.96-.364 2.761-1.082v1.16c0 .64-.199 1.32-.52 1.883L8.79 22.8a.727.727 0 0 0 0 .8c.121.239.402.399.684.399h5.043c.28 0 .52-.16.68-.398a.727.727 0 0 0 0-.801l-.72-1.203c-.363-.559-.523-1.2-.523-1.883v-1.16c.723.68 1.281 1.12 2.684 1.082a6.34 6.34 0 0 0 5.164-3.043c2.004-3.324.64-6.407-1.121-8.047zm.441 7.648c-.922 1.559-2.64 2.559-4.484 2.64-1.121.08-1.48-.28-2.203-.96l-.04-.04a.667.667 0 0 0-.761-.16.684.684 0 0 0-.438.641v1.36c0 .8.2 1.601.598 2.281l.723 1.242H9.473l.718-1.281c.403-.68.602-1.48.602-2.281v-1.364c0-.277-.16-.52-.441-.64-.079-.04-.2-.04-.282-.04-.16 0-.36.083-.52.2-.76.723-1.16 1.043-2.32 1.004-1.843-.082-3.562-1.164-4.484-2.883-1.281-2.402-.922-5.086 1-6.848L11.512.98c.281-.28.722-.28.96-.039l7.65 8.207c1.558 1.442 2.76 4.165 1 7.047zm0 0"/>
    <path d="M20.762 11.43c-.082-.2-.32-.282-.524-.2-.199.079-.277.32-.199.52.52 1.2.402 2.402-.281 3.563a3.65 3.65 0 0 1-1.68 1.523c-.48.2-.96.32-1.48.36-.243 0-.403.16-.403.398 0 .242.203.402.403.402.64-.043 1.242-.16 1.8-.441a4.796 4.796 0 0 0 2.043-1.84c.84-1.363.918-2.844.32-4.285zm0 0"/>
</svg>
